X: 1979
T: What's The Matter With Father
B: australian traditional tunes wiki
M:6/8
L:1/8
R: Two Step
Q: 3/8=100
K:C
V:1 
"C"C2C CDE|G3"F"A3|"C"E3"G7"D3|"C"C3-C2z|C2C CDE|G3A3|"G"B3 "D7"A3|"G"G3-G2z|
"C"c2c cBA|"G"B2AG3|"C"c2c cBA|"G"B2AG3|"C"C2C CDE|G3"F"A3|"C"E3"G7"D3|"C"C3-C2z||
% abcbook-tune_id 6342d5be54b1826e357b9fd9


% abcbook-boost 0
% abcbook-tablature 
% abcbook-transpose 
% abcbook-lastupdated 1665324492125
% abcbook-soundfonts 
% abcbook-repeats 1
% NFF Book 2017

